X:1
T:’Tis Now in Part
T:’Tis Now in Part
T:Owen Foulkes Pugh
T:Morton Bryan Wharton, 1905
T:Public Domain Courtesy of the Cyber Hymnal™
T:Public Domain Courtesy of the Cyber Hymnal™
C:Owen Foulkes Pugh
Z:Public Domain
Z:Courtesy of the Cyber Hymnal™
%%score ( 1 2 ) ( 3 4 )
L:1/8
Q:1/4=85
M:3/4
K:F
V:1 treble 
V:2 treble 
V:3 bass 
V:4 bass 
V:1
 [A,C][A,F] [CA] | [CA]3 [DB] [CA][B,G] | [A,F]3 [A,F] [B,G][CA] | [DB]3 [DB] [CA][=B,^G] | %4
w: 1.~’Tis now in|part I know the|Lord, I see Him|in His writ- ten|
w: 2.~’Tis now in|part I know His|love, Which brought Him|from the realms a-|
w: 3.~’Tis now in|part I know His|hand, Which leads me|thro’ this des- ert|
w: 4.~’Tis now in|part I know His|joy, My strength when|anx- ious fears an-|
 [CA]3 [CA] [A,F][FA] x2 | [Ec]3 [_EA] [EG][EF] | [DB]3 [F=B] [FB][FB] | [Ec]3 [DB] [CA][B,G] | %8
w: word, I see Him|mir- rored in His|grace: But oh! to|see Him face to|
w: bove; But, oh! to|reach that bliss- ful|sphere, And from His|lips the sto- ry|
w: land; But oh! to|stand be- fore His|throne, With ev- ery|dark- ening sha- dow|
w: noy; But oh! to|see Him as He|is, My rap- tured|heart pressed close to|
 [A,F]3 ||"^Refrain" [CA][A,F] [FA] | [EB]3 [CE] [EG][GB] | [FA]3 [FA] [CA][FA] | %12
w: face.||||
w: hear.|Then I shall|know as I am|known, And glo- ry|
w: flown.||||
w: His.||||
 [Ec]3 [EB] [EG][E^G] | [FA]3 [CA] [DF][FA] | [Ac]3 [Ac] [A_e][Ae] | [Fd]3 [Fd] [Fc][FA] | %16
w: ||||
w: give to Him a-|lone; Then I shall|know as I am|known, And glo- ry|
w: ||||
w: ||||
 [Fc][EB] !fermata![FA]3 [EG] | F6 |] %18
w: ||
w: give to Him a-|lone.|
w: ||
w: ||
V:2
 x3 | x6 | x6 | x6 | x8 | x6 | x6 | x6 | x3 || x3 | x6 | x6 | x6 | x6 | x6 | x6 | x6 | F6 |] %18
V:3
 z3 | (E,,C, F,) z [F,,F,] z | (F,,C, F,) z [C,E,C] z | (B,,D, F,) z [F,A,C] z | %4
w: |~ * * ~|~ * * ~|~ * * ~|
 F,3 ([CF] [CF]) z [F,A,C] z | D,E, G, z3 | (B,,D, F,) z [G,,G,] z | z2 [G,C][G,C] [F,A,C][E,G,] | %8
w: ~ ~ * ~||~ * * ~|~ ~ ~ ~|
 ([F,,F,][C,,C,] [F,,,F,,]) || z3 | z [C,C] [C,C][C,C] [C,C][C,C] | [F,C][F,C] [F,C] z3 | %12
w: ~ * *||~ Then I shall know|as I am|
 z [C,C] [C,C][C,C] [C,C][C,C] | [F,C][A,C] C z3 | z [F,F] [F,F][F,F] [F,C][F,C] | %15
w: known, And glo- ry give|to Him a-|lone; Then I shall know|
 [B,,B,][B,,B,] [B,,B,][F,B,] [F,A,][F,C] | [C,A,][C,G,] (!fermata!F,A, !fermata!C)[C,B,] | %17
w: as I am known, * *||
 [F,,F,A,]6 |] %18
w: |
V:4
 x3 | E,,3 x3 | F,,3 x3 | B,,3 x3 | F, x7 | D,3 x3 | B,,3 x3 | C,6 | x3 || x3 | x6 | x6 | x6 | %13
 x2 C x3 | x6 | x6 | x2 C,3 x | x6 |] %18

